X: 19
T: In and Out
%R: reel
B: "Twenty Four Country Dances with Figures for the Year 1813", Button & Whitaker, p.10 #1
F: http://www.vwml.org/browse/browse-collections-dance-tune-books/browse-button1813
Z: 2015 John Chambers <jc:trillian.mit.edu>
N: The Figures by Mr WILSON.
M: 2/4
L: 1/16
K: G
% - - - - - - - - - - - - - - - - - - - - - - - - - - - - -
[|\
BABc dBGB | EGDG EGDG | EGDG CGB,d | dccB B2A2 |
BABc dBGB | EGDG EGDG | EGDG CGB,d | dcBA G4 |]
[|\
gfga fdBf | ecAe dBGd | cADc BGDB | ABAG {G}F2ED |
gfga fdBf | ecAe dBGd | cADc BGDG | EGFA G4 |]
% - - - - - - - - - - Dance description - - - - - - - - - -
%%text SINGLE FIGURE (Tune play'd straight thro')
%%begintext align
%% Whole figure at top .| lead down the mid: up again & half poussette .| .
%%endtext
%%text DOUBLE FIGURE (Each strain repeated)
%%begintext align
%% Cast off 2 Cu: & back again .| chain figure 6 round |: lead
%% down the mid: up again allemande .| & whole figure contrary cor.s |: .
%%endtext

%%sep 2 1 500
%%sep 1 1 500

